!!!OTL: ZU COBLENZ AUF DER BRUECKE
!!!ARE: Europa, Mitteleuropa, Deutschland
!!!SCT: E0550
!!!YEM: Copyright 1995, estate of Helmut Schaffrath.
**kern
*ICvox
*Ivox
*M6/8
*k[b-]
*F:
{8c
=1
4a
8a
8a
8g
8a
=2
4.cc
4a}
{8f
=3
4b-
8b-
8b-
8cc
8dd
=4
4.cc
4r}
{8a
=5
4cc
8a
8cc
8ff
8dd
=6
4.cc
4b-}
{8b-
=7
8a
8b-
8a
8g
8f
8g
=8
4.f
4r}
==
!!!AGN: Liebes - Lied
!!!ONB: ESAC (Essen Associative Code) Database: ERK1
!!!AMT: compound duple
!!!AIN: vox
!!!EED: Helmut Schaffrath
!!!EEV: 1.0
*-
